X:32
T: Erdő, erdő! Mit vétettem?
O: Lészped (Bákó), 1932
Q: 1/4=84
L:1/4
K:F
F/F/F/G/ | A G | A F3 z |
A/c/ B A | A/A/ D C3/2 z/ |
F/G/A/G/ | F C | D<D z z/ |

